src/svg/graffiti.svg

<svg xmlns="http://www.w3.org/2000/svg" width="1000" height="1000" viewBox="0 0 1000 1000"><path fill-rule="evenodd" clip-rule="evenodd" fill="#020202" d="M877.435 256.63l-318.33 358.12-119.483-119.36 358.23-318.411c32.976-32.907 66.502-52.83 99.423-19.854 32.976 32.976 13.136 66.528-19.84 99.505zm-350.041 377.796c.11 7.227-2.583 14.564-8.188 20.115l-39.792 39.791c-10.937 11.047-28.744 11.047-39.791 0l-79.583-79.582c-10.938-10.992-10.938-28.744 0-39.791l39.791-39.791c5.606-5.552 12.916-8.244 20.171-8.189.989-2.666 2.527-5.139 3.682-7.749l111.569 111.486c-2.638 1.236-5.166 2.748-7.859 3.71zm-167.354 20.115c99.533 99.533 19.95 179.115-39.791 198.956-110.03 36.713-238.747-79.583-238.747-79.583 59.742 19.951 139.324-19.84 139.324-19.84l-59.742-19.951s59.742-19.841 59.742-59.632c0 0 2.033-27.26 39.791-39.873 59.632-19.868 99.423 19.923 99.423 19.923zm141.907 86.699c53.586-80.379 157.79 94.064-99.148 111.103 10.662-.44 21.489-.77 31.603-1.292-58.038 8.106-101.292 2.748-101.292 2.748 10.113 0 19.566-.302 29.239-.412 5.99-2.116 85.408-30.888 139.598-112.147zm168.837-28.194c106.458-159.687 313.163 108.519-236.383 138.005 74.361-10.443 173.179-43.116 236.383-138.005z"/></svg>

<?xml version="1.0" encoding="utf-8"?>
<!-- Generator: Adobe Illustrator 16.0.0, SVG Export Plug-In . SVG Version: 6.00 Build 0)  -->
<!DOCTYPE svg PUBLIC "-//W3C//DTD SVG 1.1//EN" "http://www.w3.org/Graphics/SVG/1.1/DTD/svg11.dtd">
<svg version="1.1" id="Layer_1" xmlns="http://www.w3.org/2000/svg" xmlns:xlink="http://www.w3.org/1999/xlink" x="0px" y="0px"
	 width="1000px" height="1000px" viewBox="0 0 1000 1000" enable-background="new 0 0 1000 1000" xml:space="preserve">
<path fill-rule="evenodd" clip-rule="evenodd" fill="#020202" d="M877.435,256.63L559.105,614.75l0,0L439.622,495.39l358.23-318.411
	c32.976-32.907,66.502-52.83,99.423-19.854C930.251,190.101,910.411,223.653,877.435,256.63L877.435,256.63z M527.394,634.426
	c0.11,7.227-2.583,14.564-8.188,20.115l-39.792,39.791c-10.937,11.047-28.744,11.047-39.791,0L360.04,614.75
	c-10.938-10.992-10.938-28.744,0-39.791l39.791-39.791c5.606-5.552,12.916-8.244,20.171-8.189c0.989-2.666,2.527-5.139,3.682-7.749
	l111.569,111.486C532.615,631.952,530.087,633.464,527.394,634.426L527.394,634.426z M360.04,654.541
	c99.533,99.533,19.95,179.115-39.791,198.956c-110.03,36.713-238.747-79.583-238.747-79.583
	c59.742,19.951,139.324-19.84,139.324-19.84l-59.742-19.951c0,0,59.742-19.841,59.742-59.632c0,0,2.033-27.26,39.791-39.873
	C320.249,614.75,360.04,654.541,360.04,654.541L360.04,654.541z M501.947,741.24c53.586-80.379,157.79,94.064-99.148,111.103
	c10.662-0.44,21.489-0.77,31.603-1.292c-58.038,8.106-101.292,2.748-101.292,2.748c10.113,0,19.566-0.302,29.239-0.412
	C368.339,851.271,447.757,822.499,501.947,741.24L501.947,741.24z M670.784,713.046
	c106.458-159.687,313.163,108.519-236.383,138.005C508.762,840.608,607.58,807.935,670.784,713.046L670.784,713.046z"/>
</svg>
